app/img/section-ico-2.svg

<?xml version="1.0" encoding="UTF-8" standalone="no"?>
<svg width="80px" height="90px" viewBox="0 0 80 90" version="1.1" xmlns="http://www.w3.org/2000/svg" xmlns:xlink="http://www.w3.org/1999/xlink">
    <!-- Generator: sketchtool 47.1 (45422) - http://www.bohemiancoding.com/sketch -->
    <title>429F4408-D940-4904-AF00-4E0FFF72F6C0</title>
    <desc>Created with sketchtool.</desc>
    <defs></defs>
    <g id="Page-1" stroke="none" stroke-width="1" fill="none" fill-rule="evenodd">
        <g id="main-1280" transform="translate(-600.000000, -3121.000000)">
            <g id="Group-21" transform="translate(600.000000, 3121.000000)">
                <path d="M44.8232707,1.29963498 L75.2232707,18.9648135 L75.2232707,18.9648135 C78.1804,20.6831759 80,23.8450348 80,27.2651785 L80,62.7031931 L80,62.7031931 C80,66.1233368 78.1804,69.2851957 75.2232707,71.0035581 L44.8232707,88.6687366 L44.8232707,88.6687366 C41.8412155,90.4015833 38.1587845,90.4015833 35.1767293,88.6687366 L4.77672927,71.0035581 L4.77672927,71.0035581 C1.81959999,69.2851957 3.73034936e-14,66.1233368 3.19744231e-14,62.7031931 L1.50990331e-14,27.2651785 L1.77635684e-14,27.2651785 C1.59872116e-14,23.8450348 1.81959999,20.6831759 4.77672927,18.9648135 L35.1767293,1.29963498 L35.1767293,1.29963498 C38.1587845,-0.433211659 41.8412155,-0.433211659 44.8232707,1.29963498 Z" id="Combined-Shape" fill="#FFFFFF"></path>
                <path d="M40.500395,49.4637606 C39.8088535,49.4637606 39.2498874,50.0290181 39.2498874,50.7256467 C39.2498874,51.4234806 39.8088535,51.9875328 40.500395,51.9875328 C41.1919365,51.9875328 41.7509026,51.4234806 41.7509026,50.7256467 C41.7509026,50.0290181 41.1919365,49.4637606 40.500395,49.4637606 Z M43.9939334,37.5644279 C43.0993487,36.6629085 41.864368,36.1048825 40.500395,36.1048825 C39.1352277,36.1048825 37.9002469,36.6629085 37.0068566,37.5644279 C36.1122718,38.4683578 35.5592775,39.7145758 35.5592775,41.0909596 C35.5592775,42.4685487 36.1122718,43.7159719 37.0068566,44.6174913 C37.9002469,45.5190107 39.1352277,46.0770368 40.500395,46.0770368 C41.864368,46.0770368 43.0993487,45.5190107 43.9939334,44.6174913 C44.8885182,43.7159719 45.4415124,42.4685487 45.4415124,41.0909596 C45.4415124,39.7145758 44.8885182,38.4683578 43.9939334,37.5644279 Z M40.500395,34.001739 C38.5595403,34.001739 36.8038133,34.7959921 35.531807,36.0783672 C34.2609951,37.3619476 33.4750982,39.1336502 33.4750982,41.0909596 C33.4750982,43.0482691 34.2609951,44.8211769 35.531807,46.103552 C36.8038133,47.3871324 38.5595403,48.1801802 40.500395,48.1801802 C42.4400553,48.1801802 44.1957823,47.3871324 45.4677886,46.103552 C46.7386006,44.8211769 47.5244974,43.0482691 47.5244974,41.0909596 C47.5244974,39.1336502 46.7386006,37.3619476 45.4677886,36.0783672 C44.1957823,34.7959921 42.4400553,34.001739 40.500395,34.001739 Z M40.500395,25.3360647 L29.0332283,33.5799051 L33.6172285,55.757523 L47.3835615,55.757523 L51.9675617,33.5799051 L40.500395,25.3360647 Z M23.6418326,37.4559563 C23.1748331,37.7922182 22.5250946,37.6813362 22.1918648,37.2100874 C21.8598294,36.7376334 21.9697116,36.0831882 22.4367111,35.7481315 L39.8984314,23.1943536 C40.2734643,22.9243798 40.7679343,22.9424584 41.1202741,23.206406 L58.5640789,35.7481315 C59.0310784,36.0831882 59.1397662,36.7376334 58.8077308,37.2100874 C58.474501,37.6813362 57.8259569,37.7922182 57.3589574,37.4559563 L53.8164497,34.9092846 L49.5071551,55.757523 L51.0622276,55.757523 C51.637915,55.757523 52.1037201,56.2287717 52.1037201,56.8096973 C52.1037201,57.3894177 51.637915,57.8606665 51.0622276,57.8606665 L43.4624378,57.8606665 L43.4624378,65.9490309 C43.4624378,66.5299565 42.9954383,67 42.4209454,67 C41.845258,67 41.3794529,66.5299565 41.3794529,65.9490309 L41.3794529,57.8606665 L39.6213371,57.8606665 L39.6213371,65.9490309 C39.6213371,66.5299565 39.155532,67 38.5798446,67 C38.0041573,67 37.5371578,66.5299565 37.5371578,65.9490309 L37.5371578,57.8606665 L29.9385624,57.8606665 C29.362875,57.8606665 28.8970699,57.3894177 28.8970699,56.8096973 C28.8970699,56.2287717 29.362875,55.757523 29.9385624,55.757523 L31.4924405,55.757523 L27.1843403,34.9092846 L23.6418326,37.4559563 L23.6418326,37.4559563 Z" id="Fill-18" fill="#FECE00"></path>
            </g>
        </g>
    </g>
</svg>

<svg xmlns="http://www.w3.org/2000/svg" width="80" height="82" viewBox="0 0 80 82">
    <g fill="none" fill-rule="evenodd">
        <path fill="#FFF" d="M44.823 1.3l30.4 17.665a9.6 9.6 0 0 1 4.777 8.3V72.33a9.6 9.6 0 0 1-9.6 9.6H9.6a9.6 9.6 0 0 1-9.6-9.6V27.265a9.6 9.6 0 0 1 4.777-8.3L35.177 1.3a9.6 9.6 0 0 1 9.646 0z"/>
        <path fill="#86BD3E" d="M40.5 49.464c-.691 0-1.25.565-1.25 1.262 0 .697.559 1.262 1.25 1.262.692 0 1.25-.565 1.25-1.262 0-.697-.558-1.262-1.25-1.262zm3.494-11.9a4.907 4.907 0 0 0-6.987 0 4.998 4.998 0 0 0-1.448 3.527c0 1.378.553 2.625 1.448 3.526a4.907 4.907 0 0 0 6.987 0 4.991 4.991 0 0 0 1.448-3.526 4.998 4.998 0 0 0-1.448-3.527zM40.5 34.002c-1.94 0-3.696.794-4.968 2.076a7.102 7.102 0 0 0-2.057 5.013 7.1 7.1 0 0 0 2.057 5.013A6.971 6.971 0 0 0 40.5 48.18a6.97 6.97 0 0 0 4.968-2.076 7.1 7.1 0 0 0 2.056-5.013 7.102 7.102 0 0 0-2.056-5.013 6.975 6.975 0 0 0-4.968-2.076zm0-8.666L29.033 33.58l4.584 22.178h13.767l4.584-22.178L40.5 25.336zm-16.858 12.12a1.034 1.034 0 0 1-1.45-.246 1.055 1.055 0 0 1 .245-1.462l17.461-12.554c.375-.27.87-.252 1.222.012l17.444 12.542c.467.335.576.99.244 1.462a1.033 1.033 0 0 1-1.449.246l-3.543-2.547-4.309 20.849h1.555c.576 0 1.042.47 1.042 1.052 0 .58-.466 1.05-1.042 1.05h-7.6v8.089c0 .581-.467 1.051-1.041 1.051-.576 0-1.042-.47-1.042-1.051v-8.088h-1.758v8.088c0 .581-.465 1.051-1.041 1.051-.576 0-1.043-.47-1.043-1.051v-8.088H29.94a1.046 1.046 0 0 1-1.042-1.051c0-.581.466-1.052 1.042-1.052h1.553l-4.308-20.849-3.542 2.547z"/>
    </g>
</svg>
